flowes_shop/src/assets/image/icons/accept.svg

<svg width="34" height="32" viewBox="0 0 34 32" fill="none" xmlns="http://www.w3.org/2000/svg">
<path d="M11.7042 28.5357C11.5343 28.5322 11.368 28.489 11.2198 28.4101C11.0716 28.3312 10.9462 28.2189 10.8545 28.0831L3.60072 17.2592C3.51848 17.1508 3.46035 17.0276 3.42988 16.8972C3.3994 16.7667 3.39721 16.6318 3.42345 16.5005C3.44969 16.3692 3.50381 16.2444 3.5825 16.1337C3.66119 16.0229 3.76281 15.9286 3.88116 15.8563C3.99952 15.7841 4.13212 15.7355 4.2709 15.7135C4.40968 15.6915 4.55172 15.6965 4.68837 15.7284C4.82502 15.7602 4.95341 15.8181 5.06572 15.8986C5.17803 15.9791 5.2719 16.0804 5.34162 16.1965L11.7042 25.7904L28.4707 3.36523C28.6301 3.15124 28.8725 3.00613 29.1445 2.96185C29.4166 2.91756 29.696 2.97771 29.9214 3.12907C30.1468 3.28044 30.2996 3.51061 30.3462 3.76896C30.3929 4.0273 30.3295 4.29266 30.1701 4.50666L12.5539 28.1224C12.4575 28.2509 12.33 28.3556 12.1821 28.4275C12.0343 28.4994 11.8703 28.5365 11.7042 28.5357Z" fill="black"/>
</svg>

<svg width="34" height="32" fill="none" xmlns="http://www.w3.org/2000/svg"><path d="M11.704 28.536a1.079 1.079 0 0 1-.484-.126 1.016 1.016 0 0 1-.366-.327L3.601 17.26a.936.936 0 0 1-.018-1.125c.078-.111.18-.205.298-.278a1.07 1.07 0 0 1 .807-.128c.137.032.265.09.378.17.112.081.206.182.276.299l6.362 9.593L28.471 3.365c.16-.214.401-.359.674-.403.272-.044.551.016.776.167a.984.984 0 0 1 .425.64.95.95 0 0 1-.176.738L12.554 28.122a1.023 1.023 0 0 1-.372.305 1.082 1.082 0 0 1-.478.109Z" fill="#000"/></svg>
